dist/images/icons/sass.svg

<svg width="64" height="48" viewBox="0 0 64 48" fill="none" xmlns="http://www.w3.org/2000/svg">
<path d="M30.3945 36.2617C30.3945 36.3594 30.3945 36.3594 30.3945 36.2617V36.2617ZM54.7109 27.7656C52.7578 27.7656 50.8047 28.2539 49.0469 29.1328C48.5586 27.9609 47.875 26.9844 47.7773 26.2031C47.6797 25.3242 47.582 24.7383 47.6797 23.7617C47.875 22.6875 48.4609 21.125 48.4609 21.0273C48.4609 20.9297 48.3633 20.4414 47.0938 20.4414C45.8242 20.4414 44.75 20.6367 44.5547 21.0273C44.3594 21.6133 44.1641 22.1992 44.0664 22.8828C43.8711 23.957 41.5273 28.0586 40.2578 30.207C39.8672 29.3281 39.4766 28.6445 39.3789 28.0586C39.2812 27.1797 39.1836 26.5938 39.2812 25.6172C39.3789 24.543 40.0625 23.0781 40.0625 22.8828C39.9648 22.7852 39.8672 22.2969 38.5977 22.2969C37.3281 22.2969 36.2539 22.4922 36.1562 22.8828C36.0586 23.1758 35.8633 23.957 35.668 24.7383C35.375 25.4219 32.3477 32.2578 31.5664 34.0156C31.0781 34.8945 30.7852 35.6758 30.4922 36.1641C30.4922 36.2617 30.4922 36.2617 30.3945 36.2617C30.4922 36.2617 30.4922 36.1641 30.4922 36.2617C30.2969 36.6523 30.1016 36.8477 30.1016 36.8477C30.0039 37.2383 29.8086 37.5312 29.7109 37.5312C29.6133 37.5312 29.5156 36.6523 29.7109 35.5781C30.1992 33.1367 31.2734 29.5234 31.2734 29.4258C31.2734 29.3281 31.4688 28.6445 30.5898 28.3516C29.6133 28.0586 29.3203 28.5469 29.2227 28.5469L29.125 28.7422C29.125 28.7422 30.1016 24.6406 27.2695 24.6406C25.4141 24.6406 22.9727 26.5938 21.7031 28.3516C20.9219 28.7422 19.2617 29.7188 17.5039 30.6953C16.8203 30.9883 16.1367 31.3789 15.4531 31.7695L15.3555 31.6719C11.8398 27.8633 5.39453 25.2266 5.6875 20.2461C5.78516 18.3906 6.37109 13.6055 18.0898 7.84375C27.6602 3.05859 35.2773 4.32812 36.6445 7.25781C38.5 11.457 32.543 19.1719 22.582 20.2461C18.7734 20.6367 16.8203 19.1719 16.332 18.6836C15.7461 18.0977 15.7461 18.0977 15.5508 18.1953C15.1602 18.293 15.3555 18.8789 15.5508 19.1719C15.8438 19.9531 17.0156 21.3203 19.0664 22.0039C20.9219 22.5898 25.4141 22.8828 30.7852 20.832C36.7422 18.4883 41.4297 12.043 40.0625 6.57422C38.6953 1.10547 29.6133 -0.75 20.9219 2.375C15.7461 4.13281 10.1797 7.0625 6.17578 10.7734C1.48828 15.2656 0.707031 19.0742 1 20.7344C2.17188 26.4961 10.082 30.207 13.207 33.0391C13.1094 33.1367 12.9141 33.1367 12.8164 33.2344C11.1562 34.0156 5.19922 37.2383 3.63672 40.5586C1.97656 44.3672 3.92969 47.1016 5.19922 47.3945C9.30078 48.5664 13.5 46.5156 15.7461 43.1953C17.9922 39.7773 17.6992 35.4805 16.625 33.4297C16.625 33.4297 16.625 33.4297 16.625 33.332C17.0156 33.1367 17.5039 32.8438 17.8945 32.6484C18.6758 32.1602 19.457 31.7695 20.1406 31.3789C19.75 32.3555 19.457 33.625 19.3594 35.4805C19.1641 37.6289 20.043 40.4609 21.2148 41.5352C21.7031 42.0234 22.3867 42.0234 22.6797 42.0234C24.0469 42.0234 24.6328 40.9492 25.3164 39.582C26.1953 37.9219 26.8789 36.0664 26.8789 36.0664C26.8789 36.0664 26 41.1445 28.5391 41.1445C29.418 41.1445 30.2969 39.9727 30.7852 39.3867C30.7852 39.3867 30.7852 39.3867 30.7852 39.2891C30.8828 39.0938 30.9805 38.9961 30.9805 38.9961C31.3711 38.4102 32.1523 36.9453 33.3242 34.5039C34.9844 31.3789 36.4492 27.5703 36.4492 27.5703C36.6445 28.3516 36.8398 29.2305 37.0352 30.0117C37.3281 30.9883 37.9141 31.9648 38.4023 32.9414C38.0117 33.5273 37.8164 33.8203 37.8164 33.8203C37.5234 34.2109 37.1328 34.6016 36.8398 34.9922C35.5703 36.5547 34.1055 38.2148 33.9102 38.7031C33.6172 39.2891 33.7148 39.6797 34.2031 40.0703C34.4961 40.2656 35.082 40.3633 35.668 40.2656C36.8398 40.168 37.6211 39.9727 38.0117 39.7773C38.6953 39.4844 39.3789 39.1914 39.9648 38.7031C41.2344 37.8242 41.918 36.5547 41.8203 34.7969C41.8203 33.918 41.5273 32.9414 41.1367 32.0625C41.2344 31.9648 41.332 31.7695 41.5273 31.5742C43.3828 28.7422 44.9453 25.6172 44.9453 25.6172C45.043 26.4961 45.2383 27.375 45.5312 28.1562C45.7266 28.9375 46.2148 29.8164 46.6055 30.6953C44.8477 32.1602 43.6758 33.918 43.2852 34.9922C42.6016 37.043 43.1875 38.0195 44.1641 38.2148C44.6523 38.3125 45.3359 38.1172 45.9219 37.9219C46.6055 37.6289 47.3867 37.2383 47.9727 36.8477C49.2422 35.8711 50.4141 34.6016 50.3164 32.9414C50.3164 32.1602 50.0234 31.3789 49.7305 30.6953C51.293 30.0117 53.3438 29.6211 55.8828 29.9141C61.2539 30.5977 62.3281 34.0156 62.1328 35.3828C61.9375 36.8477 60.7656 37.6289 60.375 37.8242C59.9844 38.1172 59.8867 38.1172 59.9844 38.3125C59.9844 38.6055 60.1797 38.6055 60.4727 38.5078C60.9609 38.4102 63.3047 37.3359 63.4023 34.6992C63.5977 31.3789 60.375 27.7656 54.7109 27.7656ZM12.8164 41.9258C11.0586 43.8789 8.51953 44.6602 7.44531 43.9766C6.27344 43.293 6.76172 40.4609 9.00781 38.3125C10.2773 37.043 12.0352 35.8711 13.207 35.1875C13.5 34.9922 13.793 34.7969 14.2812 34.5039C14.3789 34.5039 14.3789 34.4062 14.3789 34.4062C14.4766 34.4062 14.5742 34.3086 14.6719 34.3086C15.5508 37.2383 14.7695 39.875 12.8164 41.9258ZM26 33.0391C25.3164 34.5039 24.0469 38.4102 23.2656 38.2148C22.582 38.1172 22.0938 35.0898 23.0703 32.1602C23.5586 30.6953 24.6328 28.9375 25.2188 28.2539C26.1953 27.1797 27.2695 26.7891 27.5625 27.2773C27.8555 27.7656 26.3906 32.0625 26 33.0391ZM36.8398 38.2148C36.5469 38.3125 36.2539 38.4102 36.1562 38.3125C36.0586 38.3125 36.2539 38.1172 36.2539 38.1172C36.2539 38.1172 37.6211 36.6523 38.207 35.9688C38.5 35.5781 38.8906 35.1875 39.2812 34.6016C39.2812 34.6992 39.2812 34.6992 39.2812 34.7969C39.2812 36.5547 37.5234 37.7266 36.8398 38.2148ZM45.1406 36.2617C44.9453 36.1641 45.043 35.6758 45.6289 34.3086C45.9219 33.7227 46.5078 32.7461 47.4844 31.8672C47.582 32.1602 47.6797 32.5508 47.6797 32.9414C47.6797 35.0898 46.1172 35.9688 45.1406 36.2617Z" fill="#fff"/>
</svg>

<svg width="64" height="48" fill="none" xmlns="http://www.w3.org/2000/svg"><path d="M30.395 36.262c0 .097 0 .097 0 0zm24.316-8.496c-1.953 0-3.906.488-5.664 1.367-.488-1.172-1.172-2.149-1.27-2.93-.097-.879-.195-1.465-.097-2.441.195-1.075.78-2.637.78-2.735 0-.097-.097-.586-1.366-.586-1.27 0-2.344.196-2.54.586-.195.586-.39 1.172-.488 1.856-.195 1.074-2.539 5.176-3.808 7.324-.39-.879-.781-1.563-.88-2.148-.097-.88-.194-1.465-.097-2.442.098-1.074.782-2.539.782-2.734-.098-.098-.196-.586-1.465-.586-1.27 0-2.344.195-2.442.586-.097.293-.293 1.074-.488 1.855-.293.684-3.32 7.52-4.102 9.278-.488.879-.78 1.66-1.074 2.148 0 .098 0 .098-.098.098.098 0 .098-.098.098 0a2.42 2.42 0 01-.39.586c-.098.39-.293.683-.391.683-.098 0-.195-.879 0-1.953.488-2.441 1.562-6.055 1.562-6.152 0-.098.196-.781-.683-1.074-.977-.293-1.27.195-1.367.195l-.098.195s.977-4.101-1.855-4.101c-1.856 0-4.297 1.953-5.567 3.71-.781.391-2.441 1.368-4.2 2.344-.683.293-1.366.684-2.05 1.075l-.098-.098c-3.515-3.809-9.96-6.445-9.668-11.426.098-1.855.684-6.64 12.403-12.402 9.57-4.785 17.187-3.516 18.555-.586 1.855 4.199-4.102 11.914-14.063 12.988-3.809.39-5.762-1.074-6.25-1.562-.586-.586-.586-.586-.781-.489-.39.098-.196.684 0 .977.293.781 1.465 2.148 3.515 2.832 1.856.586 6.348.879 11.72-1.172 5.956-2.344 10.644-8.789 9.276-14.258-1.367-5.469-10.449-7.324-19.14-4.199-5.176 1.758-10.742 4.688-14.746 8.398C1.488 15.266.707 19.074 1 20.734c1.172 5.762 9.082 9.473 12.207 12.305-.098.098-.293.098-.39.195-1.66.782-7.618 4.004-9.18 7.325-1.66 3.808.293 6.543 1.562 6.836 4.102 1.171 8.301-.88 10.547-4.2 2.246-3.418 1.953-7.715.879-9.765v-.098c.39-.195.879-.488 1.27-.684.78-.488 1.562-.879 2.246-1.27-.391.977-.684 2.247-.782 4.102-.195 2.149.684 4.98 1.856 6.055.488.488 1.172.488 1.465.488 1.367 0 1.953-1.074 2.636-2.441.88-1.66 1.563-3.516 1.563-3.516s-.879 5.078 1.66 5.078c.879 0 1.758-1.171 2.246-1.757v-.098c.098-.195.195-.293.195-.293.391-.586 1.172-2.05 2.344-4.492 1.66-3.125 3.125-6.934 3.125-6.934.196.782.39 1.66.586 2.442.293.976.88 1.953 1.367 2.93l-.586.878c-.293.39-.683.782-.976 1.172-1.27 1.563-2.735 3.223-2.93 3.711-.293.586-.195.977.293 1.367.293.196.879.293 1.465.196 1.172-.098 1.953-.293 2.344-.489.683-.293 1.367-.586 1.953-1.074 1.27-.879 1.953-2.148 1.855-3.906 0-.879-.293-1.856-.683-2.734.097-.098.195-.294.39-.489 1.856-2.832 3.418-5.957 3.418-5.957.098.88.293 1.758.586 2.54.196.78.684 1.66 1.075 2.538-1.758 1.465-2.93 3.223-3.32 4.297-.684 2.051-.099 3.028.878 3.223.488.097 1.172-.098 1.758-.293.684-.293 1.465-.684 2.05-1.074 1.27-.977 2.442-2.246 2.344-3.907 0-.78-.293-1.562-.586-2.246 1.563-.683 3.614-1.074 6.153-.78 5.37.683 6.445 4.1 6.25 5.468-.196 1.465-1.367 2.246-1.758 2.441-.39.293-.488.293-.39.489 0 .292.195.292.488.195.488-.098 2.832-1.172 2.93-3.809.195-3.32-3.028-6.933-8.692-6.933zm-41.895 14.16c-1.757 1.953-4.296 2.734-5.37 2.05-1.173-.683-.684-3.515 1.562-5.663 1.27-1.27 3.027-2.442 4.199-3.126.293-.195.586-.39 1.074-.683.098 0 .098-.098.098-.098.098 0 .195-.097.293-.097.879 2.93.098 5.566-1.856 7.617zM26 33.039c-.684 1.465-1.953 5.371-2.734 5.176-.684-.098-1.172-3.125-.196-6.055.489-1.465 1.563-3.222 2.149-3.906.976-1.074 2.05-1.465 2.343-.977.293.489-1.171 4.785-1.562 5.762zm10.84 5.176c-.293.097-.586.195-.684.097-.097 0 .098-.195.098-.195s1.367-1.465 1.953-2.148c.293-.39.684-.782 1.074-1.367v.195c0 1.758-1.758 2.93-2.441 3.418zm8.3-1.953c-.195-.098-.097-.586.489-1.953a8.4 8.4 0 011.855-2.442c.098.293.196.684.196 1.074 0 2.149-1.563 3.028-2.54 3.32z" fill="#fff"/></svg>
